images/01/avatars_community-1.svg

<svg fill="none" height="30" viewBox="0 0 30 30" width="30" xmlns="http://www.w3.org/2000/svg"><path d="m25.65 12.7005c.8532-.8357 1.35-1.9771 1.35-3.2005 0-2.4812-2.0186-4.5-4.5-4.5-.8198 0-1.6265.22534-2.3335.65185-.2363.14282-.3125.44995-.1699.68653.1426.23657.4502.31201.6865.16992.5513-.33252 1.1792-.5083 1.8169-.5083 1.9297 0 3.5 1.57007 3.5 3.5 0 1.1885-.5952 2.2839-1.5942 2.9319-.8389.5503-1.9024.709-2.8736.4324-.2627-.0757-.542.0776-.6181.3432-.0757.2656.0781.5423.3437.6182.4043.1157.8223.1743 1.2422.1743.7862 0 1.5462-.2145 2.2209-.6018 2.5668.9301 4.2791 3.3534 4.2791 6.1018v2.5h-4.5593c-.3541-3.3396-2.4552-6.2621-5.5198-7.6497.9752-.993 1.5791-2.3519 1.5791-3.8503 0-3.03272-2.4673-5.5-5.5-5.5s-5.5 2.46728-5.5 5.5c0 1.4989.6042 2.8582 1.58 3.8512-1.0314.4686-1.98793 1.1242-2.79924 1.9308-1.55527 1.5597-2.50168 3.5616-2.72632 5.718h-4.55444v-2.5c0-1.7314.67627-3.364 1.90234-4.5952.67496-.6707 1.49668-1.1823 2.38141-1.5039.67487.3858 1.43256.5991 2.21625.5991.41992 0 .83789-.0586 1.24219-.1743.26563-.0759.41943-.3526.34375-.6182-.07617-.2656-.35547-.4187-.61816-.3432-.97071.2771-2.03369.1186-2.87598-.4336-.99658-.6468-1.5918-1.7422-1.5918-2.9307 0-1.92993 1.57031-3.5 3.5-3.5.6377 0 1.26562.17578 1.81689.5083.23731.14209.54346.06592.68651-.16992.1426-.23657.0664-.5437-.1699-.68653-.70704-.42651-1.51367-.65185-2.3335-.65185-2.48145 0-4.5 2.0188-4.5 4.5 0 1.2224.496 2.363 1.34671 3.1979-.79294.3686-1.5253.8775-2.1514 1.4994-1.415525 1.4218-2.19531 3.3049-2.19531 5.3027v3c0 .2761.223635.5.5.5h5v4c0 .2761.22364.5.5.5h18c.2764 0 .5-.2239.5-.5v-4h5c.2764 0 .5-.2239.5-.5v-3c0-2.9563-1.7181-5.5863-4.35-6.7995zm-10.65-6.7005c2.4814 0 4.5 2.0188 4.5 4.5s-2.0186 4.5-4.5 4.5-4.5-2.0188-4.5-4.5 2.0186-4.5 4.5-4.5zm8.5 20.5h-17v-3.5c0-2.2671.88379-4.4021 2.4873-6.0105.84476-.8402 1.8688-1.492 2.9668-1.9136.8728.5829 1.92.9241 3.0459.9241 1.1278 0 2.1768-.3422 3.0504-.9269 3.2682 1.2558 5.4496 4.4066 5.4496 7.9269z" fill="#555"/></svg>

<svg xmlns="http://www.w3.org/2000/svg" width="30" height="30" viewBox="0 0 30 30" fill="none"><path d="M25.65 12.7005C26.5032 11.8648 27 10.7234 27 9.5C27 7.0188 24.9814 5 22.5 5C21.6802 5 20.8735 5.22534 20.1665 5.65185C19.9302 5.79467 19.854 6.1018 19.9966 6.33838C20.1392 6.57495 20.4468 6.65039 20.6831 6.5083C21.2344 6.17578 21.8623 6 22.5 6C24.4297 6 26 7.57007 26 9.5C26 10.6885 25.4048 11.7839 24.4058 12.4319C23.5669 12.9822 22.5034 13.1409 21.5322 12.8643C21.2695 12.7886 20.9902 12.9419 20.9141 13.2075C20.8384 13.4731 20.9922 13.7498 21.2578 13.8257C21.6621 13.9414 22.0801 14 22.5 14C23.2862 14 24.0462 13.7855 24.7209 13.3982C27.2877 14.3283 29 16.7516 29 19.5V22H24.4407C24.0866 18.6604 21.9855 15.7379 18.9209 14.3503C19.8961 13.3573 20.5 11.9984 20.5 10.5C20.5 7.46728 18.0327 5 15 5C11.9673 5 9.5 7.46728 9.5 10.5C9.5 11.9989 10.1042 13.3582 11.08 14.3512C10.0486 14.8198 9.09207 15.4754 8.28076 16.282C6.72549 17.8417 5.77908 19.8436 5.55444 22H1V19.5C1 17.7686 1.67627 16.136 2.90234 14.9048C3.5773 14.2341 4.39902 13.7225 5.28375 13.4009C5.95862 13.7867 6.71631 14 7.5 14C7.91992 14 8.33789 13.9414 8.74219 13.8257C9.00782 13.7498 9.16162 13.4731 9.08594 13.2075C9.00977 12.9419 8.73047 12.7888 8.46778 12.8643C7.49707 13.1414 6.43409 12.9829 5.5918 12.4307C4.59522 11.7839 4 10.6885 4 9.5C4 7.57007 5.57031 6 7.5 6C8.1377 6 8.76562 6.17578 9.31689 6.5083C9.5542 6.65039 9.86035 6.57422 10.0034 6.33838C10.146 6.10181 10.0698 5.79468 9.8335 5.65185C9.12646 5.22534 8.31983 5 7.5 5C5.01855 5 3 7.0188 3 9.5C3 10.7224 3.496 11.863 4.34671 12.6979C3.55377 13.0665 2.82141 13.5754 2.19531 14.1973C0.779785 15.6191 0 17.5022 0 19.5V22.5C0 22.7761 0.223635 23 0.5 23H5.5V27C5.5 27.2761 5.72364 27.5 6 27.5H24C24.2764 27.5 24.5 27.2761 24.5 27V23H29.5C29.7764 23 30 22.7761 30 22.5V19.5C30 16.5437 28.2819 13.9137 25.65 12.7005ZM15 6C17.4814 6 19.5 8.0188 19.5 10.5C19.5 12.9812 17.4814 15 15 15C12.5186 15 10.5 12.9812 10.5 10.5C10.5 8.0188 12.5186 6 15 6ZM23.5 26.5H6.5V23C6.5 20.7329 7.38379 18.5979 8.9873 16.9895C9.83206 16.1493 10.8561 15.4975 11.9541 15.0759C12.8269 15.6588 13.8741 16 15 16C16.1278 16 17.1768 15.6578 18.0504 15.0731C21.3186 16.3289 23.5 19.4797 23.5 23V26.5Z" fill="#555555"/></svg>
